SF_Symbols/fanblades.slash.fill.svg

<?xml version="1.0" encoding="UTF-8"?>
<svg xmlns="http://www.w3.org/2000/svg" xmlns:xlink="http://www.w3.org/1999/xlink" width="24" height="24" viewBox="0 0 24 24" version="1.1">
<g id="surface1">
<path style=" stroke:none;fill-rule:nonzero;fill:rgb(100%,100%,100%);fill-opacity:1;" d="M 17.300781 2.011719 C 16.386719 2.011719 15.589844 2.292969 14.917969 2.855469 C 14.242188 3.417969 13.640625 4.234375 13.113281 5.3125 C 12.59375 6.390625 12.109375 7.695312 11.65625 9.230469 L 14.15625 11.71875 L 20.300781 11.71875 C 21.261719 11.71875 21.992188 11.472656 22.5 10.980469 C 23.007812 10.480469 23.261719 9.765625 23.261719 8.832031 C 23.261719 8 23.089844 7.179688 22.75 6.375 C 22.410156 5.5625 21.953125 4.828125 21.375 4.175781 C 20.804688 3.515625 20.167969 2.992188 19.457031 2.605469 C 18.757812 2.207031 18.039062 2.011719 17.300781 2.011719 Z M 6.824219 22.925781 C 7.734375 22.925781 8.523438 22.644531 9.199219 22.082031 C 9.871094 21.527344 10.46875 20.71875 10.988281 19.65625 C 11.511719 18.585938 12.003906 17.289062 12.46875 15.761719 L 9.9375 13.238281 L 3.832031 13.238281 C 2.859375 13.238281 2.121094 13.484375 1.613281 13.980469 C 1.109375 14.464844 0.855469 15.175781 0.855469 16.113281 C 0.859375 16.949219 1.035156 17.769531 1.375 18.582031 C 1.714844 19.390625 2.171875 20.117188 2.738281 20.769531 C 3.308594 21.429688 3.949219 21.953125 4.65625 22.34375 C 5.363281 22.734375 6.085938 22.925781 6.824219 22.925781 Z M 8.4375 1.269531 C 7.8125 1.269531 7.191406 1.375 6.574219 1.582031 C 5.953125 1.785156 5.378906 2.058594 4.84375 2.40625 L 11.3125 8.875 L 11.3125 4.25 C 11.3125 3.292969 11.0625 2.554688 10.5625 2.042969 C 10.070312 1.527344 9.359375 1.269531 8.4375 1.269531 Z M 1.613281 7.238281 C 1.613281 8.238281 1.949219 9.097656 2.613281 9.8125 C 3.28125 10.527344 4.242188 11.167969 5.5 11.730469 C 6.765625 12.285156 8.285156 12.828125 10.0625 13.355469 L 2.074219 5.355469 C 1.925781 5.660156 1.8125 5.972656 1.730469 6.292969 C 1.652344 6.605469 1.613281 6.921875 1.613281 7.238281 Z M 22.519531 17.71875 C 22.519531 16.71875 22.183594 15.859375 21.511719 15.144531 C 20.84375 14.429688 19.875 13.796875 18.605469 13.238281 C 17.339844 12.675781 15.816406 12.132812 14.03125 11.605469 L 22.0625 19.636719 C 22.207031 19.328125 22.320312 19.015625 22.394531 18.699219 C 22.480469 18.371094 22.519531 18.046875 22.519531 17.71875 Z M 15.707031 23.6875 C 16.332031 23.679688 16.953125 23.578125 17.5625 23.386719 C 18.171875 23.191406 18.746094 22.921875 19.28125 22.574219 L 12.824219 16.113281 L 12.824219 20.71875 C 12.824219 21.675781 13.074219 22.410156 13.574219 22.917969 C 14.074219 23.429688 14.785156 23.6875 15.707031 23.6875 Z M 21.050781 22.613281 C 21.203125 22.773438 21.390625 22.851562 21.613281 22.84375 C 21.84375 22.84375 22.035156 22.765625 22.1875 22.605469 C 22.339844 22.445312 22.417969 22.253906 22.417969 22.03125 C 22.417969 21.816406 22.339844 21.628906 22.1875 21.46875 L 3.074219 2.363281 C 2.921875 2.203125 2.730469 2.125 2.5 2.125 C 2.277344 2.125 2.085938 2.203125 1.925781 2.363281 C 1.773438 2.515625 1.699219 2.707031 1.699219 2.9375 C 1.699219 3.160156 1.773438 3.347656 1.925781 3.5 Z M 21.050781 22.613281 "/>
</g>
</svg>

<svg xmlns="http://www.w3.org/2000/svg" width="24" height="24"><path style="stroke:none;fill-rule:nonzero;fill:#fff;fill-opacity:1" d="M17.3 2.012c-.913 0-1.71.281-2.382.843-.676.563-1.277 1.38-1.805 2.458-.52 1.078-1.004 2.382-1.457 3.917l2.5 2.489h6.145c.96 0 1.691-.246 2.199-.739.508-.5.762-1.214.762-2.148a6.264 6.264 0 0 0-.512-2.457 7.802 7.802 0 0 0-1.375-2.2 6.825 6.825 0 0 0-1.918-1.57c-.7-.398-1.418-.593-2.156-.593ZM6.825 22.926c.91 0 1.7-.281 2.375-.844.672-.555 1.27-1.363 1.79-2.426.523-1.07 1.015-2.367 1.48-3.894l-2.531-2.524H3.832c-.973 0-1.71.246-2.219.742-.504.485-.758 1.196-.758 2.133.004.836.18 1.657.52 2.469.34.809.797 1.535 1.363 2.188.57.66 1.211 1.183 1.918 1.574.707.39 1.43.582 2.168.582ZM8.438 1.27c-.626 0-1.247.105-1.864.312-.61.2-1.191.477-1.73.824l6.468 6.469V4.25c0-.957-.25-1.695-.75-2.207-.492-.516-1.203-.773-2.124-.773ZM1.612 7.238c0 1 .336 1.86 1 2.574.668.715 1.63 1.356 2.887 1.918 1.266.555 2.785 1.098 4.563 1.625l-7.989-8c-.148.301-.261.614-.344.938a3.845 3.845 0 0 0-.117.945Zm20.907 10.48c0-1-.336-1.859-1.008-2.573-.668-.715-1.637-1.348-2.907-1.907-1.265-.562-2.789-1.105-4.574-1.633l8.031 8.032c.145-.309.258-.621.333-.938.085-.328.125-.652.125-.98Zm-6.813 5.97a6.38 6.38 0 0 0 1.855-.301 7.065 7.065 0 0 0 1.72-.813l-6.458-6.46v4.605c0 .957.25 1.691.75 2.199.5.512 1.211.77 2.133.77Zm5.344-1.075a.71.71 0 0 0 .562.23c.23 0 .422-.077.575-.238a.823.823 0 0 0 .23-.574.795.795 0 0 0-.23-.562L3.073 2.363a.761.761 0 0 0-.574-.238.77.77 0 0 0-.574.238.771.771 0 0 0-.227.575c0 .222.074.41.227.562Zm0 0"/></svg>
